lib/logo_updates/nrk-logo-nrk-p2-on-dark.svg

<svg width="198" height="48" viewBox="0 0 198 48" fill="none" xmlns="http://www.w3.org/2000/svg">
<path d="M0 45V3.00381H13.7802V45H0ZM32.5283 9.68773L40.4532 45H25.3721L15.9092 3.00381H24.3676C26.3072 2.97864 28.1892 3.66237 29.6607 4.92636C31.1347 6.13734 32.1473 7.81844 32.5283 9.68773ZM42.5233 45V3.00381H56.3035V45H42.5233ZM66.7116 18.9743C65.2267 18.9888 63.7656 18.6003 62.4839 17.8504C61.2193 17.1194 60.1688 16.0689 59.438 14.8041C58.6872 13.5222 58.2986 12.0607 58.3134 10.5751C58.2964 9.09861 58.6853 7.64583 59.438 6.3755C60.1766 5.12447 61.2259 4.08533 62.4839 3.35882C63.766 2.60976 65.2269 2.2213 66.7116 2.23484C68.1877 2.21895 69.6399 2.60775 70.9108 3.35882C72.1562 4.09169 73.1943 5.12996 73.9271 6.3755C74.6789 7.64618 75.0677 9.09873 75.0517 10.5751C75.0655 12.0605 74.6769 13.5218 73.9271 14.8041C73.202 16.0633 72.1627 17.113 70.9108 17.8504C69.6398 18.6029 68.1866 18.9918 66.7097 18.9743H66.7116ZM77.1807 45V3.00381H90.9621V45H77.1807ZM108.408 25.9538C108.447 25.9946 108.742 26.4776 109.295 27.403C109.848 28.3283 110.567 29.5114 111.454 30.952C112.341 32.392 113.277 33.9199 114.262 35.536C115.247 37.1521 116.174 38.6803 117.043 40.1202C117.908 41.5602 118.894 43.1867 120 45H104.859C103.912 43.4621 103.055 42.0721 102.286 40.83C101.517 39.5878 100.7 38.2471 99.8334 36.8077C98.9653 35.3698 98.1071 33.9699 97.2587 32.6081C96.4103 31.2464 95.6813 30.0536 95.0714 29.0297C94.459 28.0051 94.0348 27.3149 93.7989 26.9594C93.2139 26.0771 92.8677 25.058 92.7944 24.0019C92.853 22.9883 93.1791 22.0084 93.7397 21.1619C93.9762 20.7676 94.41 20.0675 95.0409 19.062C95.6717 18.0564 96.411 16.8637 97.2587 15.4835C98.1064 14.1034 98.9647 12.6936 99.8334 11.2543C100.702 9.81501 101.519 8.46432 102.286 7.20247C103.056 5.94193 103.914 4.54205 104.859 3.00285H120L108.289 22.1082C107.926 22.6755 107.722 23.3292 107.697 24.0019C107.736 24.7081 107.983 25.3871 108.406 25.9538H108.408Z" fill="white"/>
<path d="M164.56 8.44142C163.833 7.31886 162.898 6.34485 161.805 5.57142C160.588 4.72084 159.236 4.08087 157.806 3.67843C156.07 3.20008 154.274 2.97138 152.473 2.99917H136V44.999H142.222V29.9145H152.948C155.369 29.951 157.757 29.36 159.88 28.199C161.915 27.0737 163.605 25.4171 164.769 23.4065C166.017 21.188 166.641 18.6741 166.576 16.1305C166.581 14.756 166.423 13.3858 166.103 12.0488C165.795 10.7686 165.273 9.54925 164.56 8.44142ZM159.05 21.1892C158.254 22.4369 157.082 23.4002 155.703 23.9399C154.028 24.5724 152.247 24.8738 150.457 24.8273H142.221V8.1456H151.288C153.02 8.08041 154.743 8.41406 156.325 9.12068C157.583 9.7276 158.611 10.7234 159.257 11.9601C159.942 13.3473 160.278 14.8803 160.236 16.4263C160.304 18.0944 159.892 19.7471 159.05 21.1892Z" fill="#FB84C1"/>
<path d="M178.646 39.9107C179.584 39.1082 180.548 38.2722 181.567 37.3671C182.989 36.1058 184.421 34.7354 185.863 33.2558C187.305 31.7763 188.678 30.2387 189.981 28.6428C191.248 27.098 192.406 25.4677 193.448 23.7635C194.421 22.1797 195.216 20.4933 195.818 18.7353C196.377 17.1173 196.667 15.4188 196.677 13.7072C196.705 12.109 196.382 10.5242 195.729 9.06454C195.083 7.68589 194.13 6.47219 192.944 5.51528C191.587 4.44155 190.024 3.65607 188.352 3.2072C186.296 2.64631 184.172 2.37754 182.041 2.40868C180.66 2.40508 179.282 2.52384 177.923 2.76359C176.629 2.99225 175.36 3.33913 174.13 3.79981C172.958 4.23796 171.819 4.76156 170.723 5.36641L171.493 10.5128C172.432 9.88477 173.435 9.35925 174.486 8.94527C175.627 8.48728 176.807 8.13089 178.012 7.88041C179.239 7.62407 180.49 7.49563 181.745 7.49698C183.058 7.47017 184.368 7.64943 185.626 8.02832C186.628 8.33469 187.549 8.86015 188.322 9.5664C189.018 10.2147 189.555 11.0142 189.892 11.903C190.237 12.8404 190.408 13.8326 190.396 14.8311C190.376 16.5072 190.034 18.1639 189.389 19.7113C188.639 21.5287 187.685 23.2554 186.544 24.8579C185.217 26.741 183.772 28.5389 182.219 30.2409C180.56 32.0747 178.752 33.9085 176.797 35.7423C174.841 37.5761 172.817 39.4395 170.723 41.3324L171.493 45H197.151L197.862 39.9117L178.646 39.9107Z" fill="#FB84C1"/>
</svg>

<svg xmlns="http://www.w3.org/2000/svg" viewBox="0 0 198 48"><path fill="#fff" d="M0 45V3.004h13.78V45H0ZM32.528 9.688 40.453 45h-15.08L15.908 3.004h8.459a7.965 7.965 0 0 1 5.293 1.922 8.31 8.31 0 0 1 2.867 4.762ZM42.523 45V3.004h13.78V45h-13.78Zm24.189-26.026a8.213 8.213 0 0 1-4.228-1.124 8.336 8.336 0 0 1-3.046-3.046 8.206 8.206 0 0 1-1.125-4.229 8.056 8.056 0 0 1 1.125-4.2 8.437 8.437 0 0 1 3.046-3.016 8.232 8.232 0 0 1 4.228-1.124 8.083 8.083 0 0 1 4.199 1.124 8.503 8.503 0 0 1 3.016 3.016 8.075 8.075 0 0 1 1.125 4.2 8.226 8.226 0 0 1-1.125 4.23 8.4 8.4 0 0 1-3.016 3.045 8.059 8.059 0 0 1-4.201 1.124h.002ZM77.18 45V3.004h13.781V45H77.181Zm31.227-19.046c.039.04.334.524.887 1.449.553.925 1.272 2.108 2.159 3.549a1143.28 1143.28 0 0 1 5.589 9.168A854.89 854.89 0 0 0 120 45h-15.141c-.947-1.538-1.804-2.928-2.573-4.17a382.214 382.214 0 0 1-2.453-4.022 351.934 351.934 0 0 0-2.574-4.2 213.445 213.445 0 0 1-2.188-3.578 62.753 62.753 0 0 0-1.272-2.07 6.119 6.119 0 0 1-1.005-2.958 5.744 5.744 0 0 1 .946-2.84c.236-.394.67-1.095 1.3-2.1.632-1.006 1.371-2.198 2.219-3.579a636.03 636.03 0 0 0 2.574-4.229c.869-1.439 1.686-2.79 2.453-4.052.77-1.26 1.628-2.66 2.573-4.2H120l-11.711 19.106a3.773 3.773 0 0 0-.592 1.894c.039.706.286 1.385.709 1.952h.002Z"/><path fill="#FB84C1" d="M164.56 8.441a10.525 10.525 0 0 0-2.755-2.87 13.244 13.244 0 0 0-3.999-1.893A18.975 18.975 0 0 0 152.473 3H136v42h6.222V29.914h10.726a14.006 14.006 0 0 0 6.932-1.715 12.813 12.813 0 0 0 4.889-4.793 14.104 14.104 0 0 0 1.807-7.275 17.264 17.264 0 0 0-.473-4.082 11.74 11.74 0 0 0-1.543-3.608Zm-5.51 12.748a6.993 6.993 0 0 1-3.347 2.75 13.83 13.83 0 0 1-5.246.888h-8.236V8.146h9.067a11.307 11.307 0 0 1 5.037.975 6.488 6.488 0 0 1 2.932 2.84 9.504 9.504 0 0 1 .979 4.465 8.74 8.74 0 0 1-1.186 4.763ZM178.646 39.91c.938-.802 1.902-1.638 2.921-2.543a81.904 81.904 0 0 0 4.296-4.111 70.372 70.372 0 0 0 4.118-4.613 43.362 43.362 0 0 0 3.467-4.88 25.207 25.207 0 0 0 2.37-5.028c.559-1.618.849-3.316.859-5.028a10.9 10.9 0 0 0-.948-4.642 10.03 10.03 0 0 0-2.785-3.55 12.713 12.713 0 0 0-4.592-2.308c-2.056-.56-4.18-.83-6.311-.798a23.352 23.352 0 0 0-4.118.355A21.457 21.457 0 0 0 174.13 3.8a25.62 25.62 0 0 0-3.407 1.566l.77 5.147a15.796 15.796 0 0 1 2.993-1.568 20.866 20.866 0 0 1 3.526-1.065 18.158 18.158 0 0 1 3.733-.383 12.57 12.57 0 0 1 3.881.531 7.055 7.055 0 0 1 2.696 1.538 6.194 6.194 0 0 1 1.57 2.337c.345.937.516 1.93.504 2.928a13.09 13.09 0 0 1-1.007 4.88 25.92 25.92 0 0 1-2.845 5.147 54.936 54.936 0 0 1-4.325 5.383 94.337 94.337 0 0 1-5.422 5.501 454.53 454.53 0 0 1-6.074 5.59l.77 3.668h25.658l.711-5.088-19.216-.001Z"/></svg>
